src/assets/svg/icons/fa/nuevos/classic/duotone/ruler-horizontal classic duotone.svg

<svg xmlns="http://www.w3.org/2000/svg" viewBox="0 0 640 512"><!--! Font Awesome Pro 6.4.0 by @fontawesome - https://fontawesome.com License - https://fontawesome.com/license (Commercial License) Copyright 2023 Fonticons, Inc. --><defs><style>.fa-secondary{opacity:.4}</style></defs><path class="fa-primary" d="M144 208l0-80H112v80c0 8.8 7.2 16 16 16s16-7.2 16-16zm96-80H208v80c0 8.8 7.2 16 16 16s16-7.2 16-16V128zm96 80V128H304v80c0 8.8 7.2 16 16 16s16-7.2 16-16zm96-80H400v80c0 8.8 7.2 16 16 16s16-7.2 16-16V128zm96 0H496v80c0 8.8 7.2 16 16 16s16-7.2 16-16V128z"/><path class="fa-secondary" d="M0 336c0 26.5 21.5 48 48 48l544 0c26.5 0 48-21.5 48-48l0-160c0-26.5-21.5-48-48-48l-64 0 0 80c0 8.8-7.2 16-16 16s-16-7.2-16-16l0-80-64 0 0 80c0 8.8-7.2 16-16 16s-16-7.2-16-16l0-80-64 0 0 80c0 8.8-7.2 16-16 16s-16-7.2-16-16l0-80-64 0 0 80c0 8.8-7.2 16-16 16s-16-7.2-16-16l0-80-64 0 0 80c0 8.8-7.2 16-16 16s-16-7.2-16-16l0-80-64 0c-26.5 0-48 21.5-48 48L0 336z"/></svg>

<svg xmlns="http://www.w3.org/2000/svg" viewBox="0 0 640 512"><defs><style>.fa-secondary{opacity:.4}</style></defs><path class="fa-primary" d="M128 224C119.2 224 112 216.8 112 208V128H144V208C144 216.8 136.8 224 128 224zM240 128V208C240 216.8 232.8 224 224 224C215.2 224 208 216.8 208 208V128H240zM320 224C311.2 224 304 216.8 304 208V128H336V208C336 216.8 328.8 224 320 224zM432 128V208C432 216.8 424.8 224 416 224C407.2 224 400 216.8 400 208V128H432zM528 128V208C528 216.8 520.8 224 512 224C503.2 224 496 216.8 496 208V128H528z"/><path class="fa-secondary" d="M0 176C0 149.5 21.49 128 48 128H112V208C112 216.8 119.2 224 128 224C136.8 224 144 216.8 144 208V128H208V208C208 216.8 215.2 224 224 224C232.8 224 240 216.8 240 208V128H304V208C304 216.8 311.2 224 320 224C328.8 224 336 216.8 336 208V128H400V208C400 216.8 407.2 224 416 224C424.8 224 432 216.8 432 208V128H496V208C496 216.8 503.2 224 512 224C520.8 224 528 216.8 528 208V128H592C618.5 128 640 149.5 640 176V336C640 362.5 618.5 384 592 384H48C21.49 384 0 362.5 0 336V176z"/></svg>
